X: 5
T: The Hare In The Corn
R: jig
M: 6/8
L: 1/8
K: Dmaj
|: F2 A AFA | BdB AFE | ~F3 EDE | F2 D DED |
F2 A AFA | B/c/dB AFA | Bcd ecA | ded d3 :|
|: ~f3 fed | g2 e ede | ~f3 fed | a^ga ba=g |
~f3 fed | ~g2 e edB | AB/c/d ecA | ded d3 :|


Tune 1736	Setting 25967

